!!!OTL: Cange, 2)
!!!ARE: Asia, China,ÿZhejiang Deqing
!! III, 612
!!!SCT: C2068
!!!YEM: Copyright 1995, estate of Helmut Schaffrath.
**kern
*ICvox
*Ivox
*M2/4
*k[b-]
*F:
{8.a
16cc
8cc
16a
16cc
=1
4.dd
16dd
16cc
=2
4a
4dd
=3
16cc
16dd
16cc
16g
4a}
=4
{8a
8dd
16cc
16dd
16cc
16a
=5
8g
16f
16g
4a
=6
8.a
16cc
16dd
16cc
16a
16g
=7
8f
4.g}
=8
{8.g
16a
4cc
=9
16dd
16cc
16a
16g
8f
8d
=10
8.f
16g
16f
16g
16f
16g
=11
8a
16dd
16cc
8a
8r}
=12
{8a
16dd
16ff
8dd
16cc
16a
=13
8.g
16a
8cc
8r
=14
8.f
16g
8.a
16cc
=15
16cc
16a
4g
16f
16g
=16
8a}
{8r
16g
16a
16g
16f
=17
8d
8d
8r
8f
=18
8g
8a
[4g
=19
4g]
4r}
==
!!!AGN: Xiaodiao
!!!AMT: simple duple
!!!AIN: vox
!!!EED: Helmut Schaffrath
!!!EEV: 1.0
*-
!!!ONB: Tied note syntax fixed by Craig Sapp, 2004/05/03/
